X:9
T:Banish Misfortune
M:6/8
R:jig
C:Traditional
K:Dmix
fed cAG | A2d cAG | FD/D/D DED | FF/F/F GFG |
AA/A/A cAG | AGA cde | fed cAG | Ad^c d2e :|
|: fd/d/d d^cd | fg/g/g agf | ec/c/c cBc | ef/f/f gfe |
fg/g/g agf | ef/f/f gfe | fed cAG | Ad^c d2e :|
|: f2g e2f | d2e cdc | AA/A/A GAG | FGF AFD |
cc/c/c cAG | AGA cde | fed cAG | Ad^c d2e :|

%%newpage
%%scale .60
%%staffsep 30

